app/src/assets/UserIcon.svg

<?xml version="1.0" encoding="UTF-8"?>
<svg id="svg2" width="73" height="73" fill="none" version="1.1" viewBox="0 0 73 73" xmlns="http://www.w3.org/2000/svg">
 <g id="g2" clip-path="url(#clip0_23_265)" fill="#de3f3f">
  <path id="path1" d="m62.07 49.721c-3.2584-3.5303-7.2125-6.3477-11.613-8.2747-4.4008-1.927-9.1529-2.9218-13.957-2.9218s-9.5563 0.9948-13.957 2.9218-8.3548 4.7444-11.613 8.2747c-0.503 0.5563-0.7844 1.2778-0.7908 2.0278v12.167c0.0106 0.7996 0.3358 1.5629 0.9051 2.1246 0.5693 0.5616 1.3368 0.8765 2.1366 0.8765h46.639c0.8067 0 1.5804-0.3205 2.1508-0.8909s0.8909-1.3441 0.8909-2.1508v-12.167c-0.0162-0.7359-0.2969-1.4414-0.7908-1.9872z"/>
  <path id="path2" d="m36.5 34.472c7.8394 0 14.194-6.355 14.194-14.194s-6.355-14.194-14.194-14.194-14.194 6.3551-14.194 14.194 6.3551 14.194 14.194 14.194z"/>
 </g>
 <defs id="defs2">
  <clipPath id="clip0_23_265">
   <rect id="rect2" width="73" height="73" fill="#fff"/>
  </clipPath>
 </defs>
</svg>

<svg width="73" height="73" viewBox="0 0 73 73" fill="none" xmlns="http://www.w3.org/2000/svg">
<g clip-path="url(#clip0_23_265)">
<path d="M62.0703 49.7211C58.8119 46.1908 54.8578 43.3734 50.4571 41.4464C46.0563 39.5194 41.3042 38.5246 36.5 38.5246C31.6958 38.5246 26.9437 39.5194 22.5429 41.4464C18.1421 43.3734 14.1881 46.1908 10.9297 49.7211C10.4267 50.2774 10.1453 50.9989 10.1389 51.7489V63.9156C10.1495 64.7152 10.4747 65.4785 11.044 66.0402C11.6133 66.6018 12.3808 66.9167 13.1806 66.9167H59.8194C60.6261 66.9167 61.3998 66.5962 61.9702 66.0258C62.5406 65.4554 62.8611 64.6817 62.8611 63.875V51.7083C62.8449 50.9724 62.5642 50.2669 62.0703 49.7211Z" fill="#DE3F3F"/>
<path d="M36.5 34.4722C44.3394 34.4722 50.6944 28.1172 50.6944 20.2778C50.6944 12.4384 44.3394 6.08333 36.5 6.08333C28.6606 6.08333 22.3055 12.4384 22.3055 20.2778C22.3055 28.1172 28.6606 34.4722 36.5 34.4722Z" fill="#DE3F3F"/>
</g>
<defs>
<clipPath id="clip0_23_265">
<rect width="73" height="73" fill="white"/>
</clipPath>
</defs>
</svg>
